public/assets/images/icons/red/refresh/group4.svg

<svg width="16" height="16" xmlns="http://www.w3.org/2000/svg" viewBox="0 0 16 16" shape-rendering="geometricPrecision" fill="#cb1800"><defs><mask id="a"><rect fill="#fff" width="100%" height="100%"/><path d="M17.514 2.67l-.862-.55L16.65-1h-2.866v.558c-1.334-.3-2.758.103-3.723 1.067-1.568 1.57-1.553 4.14.036 5.732.78.777 1.81 1.205 2.9 1.205 1.072 0 2.078-.415 2.832-1.168C16.585 5.64 17 4.63 17 3.557V2.67h.514zm-3.373.888c0 .22-.057.54-.332.813-.443.444-1.23.427-1.69-.034-.475-.475-.49-1.234-.036-1.69.01-.01.02-.02.033-.03v.922h2.026v.02z" fill="#000"/></mask></defs><path d="M13.114 2.537h2.538V0h-.868v1.105c-1.204-.927-2.924-.863-4.016.227-1.187 1.188-1.162 3.12.035 4.317 1.2 1.197 3.13 1.223 4.32.036.584-.584.878-1.357.877-2.128h-.86c0 .558-.207 1.103-.626 1.522-.843.842-2.23.836-3.104-.036-.87-.872-.877-2.26-.035-3.105.73-.728 1.86-.82 2.72-.27h-.982v.867z"/><path d="M14.625 6.406c-.28-.844-3.277.058-5.172.453-.673.14.552-1.62 1.235-2.89.398-.743-.03-1-2.375-1.032C5.97 2.906 1.49 4.244 1.063 7.5c-.44 3.344 2.624 6.03 7.593 5.344 5.95-.823 6.164-5.853 5.97-6.438zm-12.11.453c0-.51.414-.923.923-.923.51 0 .922.413.922.922 0 .508-.413.92-.922.92-.51 0-.922-.41-.922-.92zm1.376 4.003c-.57 0-1.03-.462-1.03-1.03 0-.57.462-1.032 1.03-1.032.57 0 1.032.463 1.032 1.032 0 .57-.462 1.03-1.03 1.03zM4.923 5.03c0-.413.336-.75.75-.75s.75.337.75.75c0 .415-.336.75-.75.75s-.75-.335-.75-.75zm2.328 7c-.644.073-1.226-.39-1.3-1.034-.074-.644.39-1.226 1.033-1.3.644-.074 1.226.39 1.3 1.033.073.644-.39 1.225-1.033 1.3zm3.246-.564c-.644.074-1.226-.39-1.3-1.033-.074-.644.39-1.226 1.033-1.3.643-.074 1.225.39 1.3 1.033.072.644-.39 1.226-1.034 1.3zm2.146-2.242c-.44.05-.837-.266-.888-.706-.05-.44.266-.837.706-.888.44-.05.838.266.888.706.05.44-.266.837-.706.888z" mask="url(#a)"/></svg>

<?xml version="1.0"?><!DOCTYPE svg PUBLIC "-//W3C//DTD SVG 1.1//EN" "http://www.w3.org/Graphics/SVG/1.1/DTD/svg11.dtd"><svg width="16px" height="16px" xmlns="http://www.w3.org/2000/svg" viewBox="0 0 16 16" shape-rendering="geometricPrecision" fill="#cb1800"><defs><mask id="refresh-path"><rect fill="#fff" width="100%" height="100%"/><path d="M17.514,2.671l-0.862-0.552L16.65-1h-2.866v0.558c-1.334-0.3-2.758,0.103-3.723,1.067 c-1.569,1.569-1.554,4.141,0.035,5.732c0.779,0.777,1.809,1.205,2.901,1.205c1.071,0,2.077-0.415,2.831-1.168 C16.585,5.639,17.001,4.631,17,3.557l0-0.886H17.514z M14.141,3.558c0,0.22-0.058,0.539-0.333,0.813 c-0.443,0.443-1.23,0.426-1.69-0.035c-0.475-0.475-0.49-1.234-0.036-1.689c0.011-0.011,0.021-0.022,0.033-0.031l0,0.922h2.026 V3.558z" fill="#000"/></mask></defs><path display="inline" d="M13.114,2.537h2.538L15.651,0h-0.867v1.105 c-1.204-0.927-2.924-0.863-4.016,0.227C9.581,2.52,9.606,4.451,10.803,5.649c1.201,1.198,3.131,1.224,4.319,0.037 C15.707,5.102,16.001,4.329,16,3.558l-0.859,0.001c-0.001,0.557-0.208,1.102-0.627,1.521c-0.843,0.842-2.231,0.836-3.104-0.036 c-0.871-0.872-0.877-2.26-0.035-3.105c0.729-0.727,1.86-0.818,2.721-0.268h-0.983L13.114,2.537z" fill="#cb1800"/><g mask="url(#refresh-path)"><path d="M14.625,6.406c-0.281-0.844-3.277,0.058-5.172,0.453C8.78,7,10.005,5.24,10.688,3.969 c0.398-0.742-0.031-1-2.375-1.031C5.969,2.906,1.489,4.244,1.062,7.5c-0.438,3.344,2.625,6.031,7.594,5.344 C14.606,12.021,14.82,6.991,14.625,6.406z M2.516,6.859c0-0.509,0.413-0.922,0.922-0.922c0.509,0,0.922,0.413,0.922,0.922 c0,0.509-0.413,0.922-0.922,0.922C2.928,7.781,2.516,7.369,2.516,6.859z M3.891,10.863c-0.57,0-1.031-0.462-1.031-1.031 c0-0.57,0.462-1.031,1.031-1.031c0.57,0,1.031,0.462,1.031,1.031C4.922,10.401,4.46,10.863,3.891,10.863z M4.922,5.031 c0-0.414,0.336-0.75,0.75-0.75c0.414,0,0.75,0.336,0.75,0.75c0,0.414-0.336,0.75-0.75,0.75C5.258,5.781,4.922,5.445,4.922,5.031z M7.25,12.029c-0.644,0.074-1.226-0.389-1.3-1.033c-0.074-0.644,0.389-1.226,1.033-1.3c0.644-0.074,1.226,0.389,1.3,1.033 C8.356,11.374,7.894,11.955,7.25,12.029z M10.496,11.466c-0.644,0.074-1.226-0.389-1.3-1.033c-0.074-0.644,0.389-1.226,1.033-1.3 c0.644-0.074,1.226,0.389,1.3,1.033C11.602,10.81,11.14,11.392,10.496,11.466z M12.642,9.224c-0.44,0.05-0.837-0.266-0.888-0.706 c-0.05-0.44,0.266-0.837,0.706-0.888c0.44-0.05,0.838,0.266,0.888,0.706C13.398,8.776,13.082,9.173,12.642,9.224z"/></g></svg>
